X:1
T:Title
%%score { 1 | 2 }
L:1/8
Q:1/4=100
M:4/4
K:Eb
V:1 treble nm="Grand Piano"
V:2 bass 
V:1
 G2 G2 G3 [FA] | [GB]2 [Ac]2 [GB]2 [EG]2 | [DF]2 [DF]2 [DF]3 [EG] | [FA]2 [EG]2 [DF]4 | %4
w: Warren~W.~Bentley * * *||||
 G2 G2 G3 [FA] | [GB]2 [Ac]2 [GB]2 [EG]2 | [DF]2 [DF]2 [DB]3 [B,EG] | [G,CE]2 [A,DF]2 [G,E]4 | %8
w: ||||
 [GB]3 [GB] [GB]G z2 | c3 c cA z2 | [Ge]3 [Ge] [Ge]2 [Ac]2 | [GB]2 [EG]2 [DF]4 | %12
w: ||||
 [Ge]2 [Ge]2 [Ge]2 [GB]2 |[M:19/16] c/-c/-c-<cBce/-e/-e/-e/-e/-e-<e |[M:4/4] B3 c B2 G2 | %15
w: |||
 E2 F2 E4 |] %16
w: |
V:2
 [E,B,E]2 [E,B,E]2 [E,B,E]3 [E,B,] | [E,E]2 [E,E]2 [E,E]2 [E,B,]2 | %2
 [B,,B,]2 [B,,B,]2 [B,,B,]3 [B,,B,] | [B,,B,]2 [B,,B,]2 [B,,B,]4 | %4
 [E,B,E]2 [E,B,E]2 [E,B,E]3 [E,E] | [E,E]2 [E,E]2 [E,E]2 [E,B,]2 | [B,,B,]2 [B,,B,]2 [B,,F,]3 B,, | %7
 C,2 B,,2 E,4 | [E,E]3 [E,E] [E,E][E,B,E] z2 | [A,E]3 [A,E] [A,E][A,CE] z2 | %10
 [E,B,]3 [E,B,] [E,B,]2 [E,B,]2 | [E,B,]2 [E,B,]2 [B,,B,]4 | [E,B,]2 [E,B,]2 [E,B,]2 [E,B,]2 | %13
[M:19/16] [A,E]/-[A,E]/-[A,E]-<[A,E][G,B,E][A,E][A,CE]/-[A,CE]/-[A,CE]/-[A,CE]/-[A,CE]/-[A,CE]-<[A,CE] | %14
[M:4/4] [E,G,E]3 [E,A,E] [E,G,E]2 [E,B,E]2 | [E,G,B,]2 [B,,A,B,]2 [E,G,B,]4 |] %16

